!!!!SEGMENT: pl-sa--95-a-ii-35--006_anonim--ave-verum-corpus.krn
!!!cenid: 17xx:1457
!!!COM: Anonim
!!!COM-rismid: pe30004985
!!!CDT:
!!!CNT:
!!!OTL: Ave verum corpus
!!!PDT:
!!!AGN:
!!!SMS-siglum: PL-SA
!!!SMS-shelfmark: 95/A II 35
!!!SMS-shelfwork: 006 W
!!!SMS-variant:
!!!SMS-altvar:
!!!NIFC-rismid: 1001041192
!!!URL-scan: http://bc.bdsandomierz.pl/dlibra/publication/1376/edition/1344/content
!!!ONB-nifc: 6tus
**kern	**fba	**kern	**dynam	**kern	**dynam	**kern	**text
*part4	*part4	*part3	*part3	*part2	*part2	*part1	*part1
*staff4	*	*staff3	*	*staff2	*	*staff1	*staff1
*Iorgan	*	*Ivioln	*	*Ivioln	*	*Iempty	*
*I"Organo	*	*I"Violino 2do	*	*I"Violino Primo	*	*I"Vox	*
*I'org	*	*I'vl 2	*	*I'vl 1	*	*	*
*ICklav	*	*ICstr	*	*ICstr	*	*ICvox	*
*clefF4	*	*clefG2	*	*clefG2	*	*clefF4	*
*k[]	*	*k[]	*	*k[]	*	*k[]	*
*a:	*	*a:	*	*a:	*	*a:	*
*M4/4	*	*M4/4	*	*M4/4	*	*M4/4	*
*met(c)	*	*met(c)	*	*met(c)	*	*met(c)	*
=1	=1	=1	=1	=1	=1	=1	=1
!LO:TX:b:rj:t=Ave verum	!	!LO:TX:b:rj:t=Ave veru(m)	!	!LO:TX:a:rj:t=P:problem=partie skrzypiec zamienione?	!	!	!
!LO:TX:a:rj:t=6tus	!	!LO:TX:a:rj:t=6tus	!	!LO:TX:b:rj:t=Ave verum	!	!	!
!LO:TX:a:rj:t=Adagio	!	!LO:TX:a:rj:t=Lente	!	!LO:TX:a:rj:t=6tus	!	!LO:TX:a:rj:t=6tus	!
4C/	.	16c/LL	.	8c/L	.	00r	.
.	.	16d/	.	.	.	.	.
.	.	16e/	.	16e/L	.	.	.
.	.	16f/JJ	.	16f/JJ	.	.	.
4r	.	8g/L	.	8g/L	.	.	.
.	.	16a/L	.	16a/L	.	.	.
.	.	16b/JJ	.	16b/JJ	.	.	.
8C/L	.	8cc\L	.	8cc/L	.	.	.
8D/	.	16b\L	.	16b/L	.	.	.
.	.	16a\JJ	.	16a/JJ	.	.	.
8E/	.	8g/L	.	8g/L	.	.	.
8D/J	.	16a/L	.	16a/L	.	.	.
.	.	16b/JJ	.	16b/JJ	.	.	.
=2	=2	=2	=2	=2	=2	=2	=2
8C/L	.	8cc\L	.	8cc/L	.	.	.
8D/	.	16b\L	.	16b/L	.	.	.
.	.	16a\JJ	.	16a/JJ	.	.	.
8E/	.	8g/L	.	8g/L	.	.	.
8C/J	.	8e/J	.	8e/J	.	.	.
8GG/L	7 5	16f/LL	.	8d/L	.	.	.
.	.	16a/	.	.	.	.	.
8r	.	16f/	.	8r	.	.	.
.	.	16d/JJ	.	.	.	.	.
8C/J	.	16e/LL	.	8c/J	.	.	.
.	.	16g/	.	.	.	.	.
8r	.	16e/	.	8r	.	.	.
.	.	16c/JJ	.	.	.	.	.
=3	=3	=3	=3	=3	=3	=3	=3
8G\L	.	4d/	.	4B/	.	.	.
8A\	.	.	.	.	.	.	.
8B\	.	4r	.	4r	.	.	.
8G\J	.	.	.	.	.	.	.
4C/	.	8cc\L	.	8cc\L	.	.	.
.	.	16ee\L	.	16ee\L	.	.	.
.	.	16ff\JJ	.	16ff\JJ	.	.	.
4r	.	8gg\L	.	8gg\L	.	.	.
.	.	16aa\L	.	16ff\L	.	.	.
.	.	16bb\JJ	.	16dd\JJ	.	.	.
!	!	!LO:LB:g=original	!	!	!	!	!
=4	=4	=4	=4	=4	=4	=4	=4
8C/L	.	8ccc\L	.	4ee\	.	.	.
8D/	.	16bb\L	.	.	.	.	.
.	.	16aa\JJ	.	.	.	.	.
8E/	.	8gg\L	.	4r	.	.	.
8D/J	.	16aa\L	.	.	.	.	.
.	.	16bb\JJ	.	.	.	.	.
4C/	.	8ccc\L	.	8ee\L	.	.	.
.	.	16bb\L	.	8dd\	.	.	.
.	.	16aa\JJ	.	.	.	.	.
8r	.	8gg\L	.	8ee\	.	.	.
8G\	7 5	8ee\J	.	8dd\J	.	.	.
!	!	!	!	!LO:LB:g=original	!	!	!
=5	=5	=5	=5	=5	=5	=5	=5
4G\	.	16ff\LL	.	16dd\LL	.	00r	.
.	.	16aa\	.	16ff\	.	.	.
.	.	16ff\	.	16dd\	.	.	.
.	.	16dd\JJ	.	16b\JJ	.	.	.
8C/L	.	16ee\LL	.	16cc\LL	.	.	.
.	.	16gg\	.	16ee\	.	.	.
8E/J	.	16ee\	.	16cc\	.	.	.
.	.	16cc\JJ	.	16a\JJ	.	.	.
8G\L	.	4dd\	.	4b/	.	.	.
8A\	.	.	.	.	.	.	.
8B\	.	8r	.	8r	.	.	.
8A\J	.	8g/	.	8g/	.	.	.
!LO:LB:g=original	!	!	!	!	!	!	!
=6	=6	=6	=6	=6	=6	=6	=6
4G\	7 5	16f/LL	.	16f/LL	.	.	.
.	.	16a/	.	16a/	.	.	.
.	.	16f/	.	16f/	.	.	.
.	.	16d/JJ	.	16d/JJ	.	.	.
4C/	.	16e/LL	.	16e/LL	.	.	.
.	.	16g/	.	16g/	.	.	.
.	.	16e/	.	16e/	.	.	.
.	.	16c/JJ	.	16c/JJ	.	.	.
8GG/L	.	4d/	.	4d/	.	.	.
8AA/	.	.	.	.	.	.	.
8BB/J	.	8r	.	8r	.	.	.
8r	.	8g/	.	8g/	.	.	.
=7	=7	=7	=7	=7	=7	=7	=7
2r	.	8f/L	.	8f/L	.	.	.
.	.	8f/	.	8d/	.	.	.
.	.	8f/	.	8d/	.	.	.
.	.	8f/J	.	8d/J	.	.	.
4r	.	8f/L	.	8d/L	.	.	.
.	.	16e/L	.	16c/L	.	.	.
.	.	16d/JJ	.	16B/JJ	.	.	.
!	!	!LO:TX:t=P:problem= mixed beam	!	!LO:TX:t=P:problem= mixed beam	!	!	!
8r	.	8e/L	.	8c/L	.	.	.
8C/	.	8gg\J	.	8ee\J	.	.	.
!	!	!LO:LB:g=original	!	!	!	!	!
=8	=8	=8	=8	=8	=8	=8	=8
8D/L	.	8ff\L	.	8dd\L	.	.	.
8C/	.	8ff\	.	8dd\	.	.	.
8BB/	.	8ff\	.	8dd\	.	.	.
8AA/J	.	8ff\J	.	8dd\J	.	.	.
8GG/L	.	8ff\L	.	8dd\L	.	.	.
8BB/	.	16ee\L	.	16cc\L	.	.	.
.	.	16dd\JJ	.	16b\JJ	.	.	.
8C/	.	8ee\L	.	8cc/L	.	.	.
8F/J	.	16dd\L	.	16b/L	.	.	.
.	.	16cc\JJ	.	16a/JJ	.	.	.
!	!	!	!	!LO:LB:g=original	!	!	!
=9	=9	=9	=9	=9	=9	=9	=9
!LO:TX:t=P:problem= mixed beam	!	!	!	!	!	!	!
8G\L	.	8b\L	.	8g/L	.	2r	.
8C\	.	8cc\	.	8g/	.	.	.
8G\	4	8g\	.	8g/	.	.	.
8GG/J	3	8b\J	.	8g/J	.	.	.
4C/	.	4cc\	.	4e/	.	4r	.
8C/L	.	4r	.	4r	.	16C/LL	A-
.	.	.	.	.	.	16D/JJ	.
8C/J	.	.	.	.	.	16E\LL	-ve
.	.	.	.	.	.	16F\JJ	.
=10	=10	=10	=10	=10	=10	=10	=10
!	!	!LO:TX:a:rj:t=1	!	!	!	!	!
8BB/L	6	1r	.	1r	.	8G\	ve
8AA/	.	.	.	.	.	8G\	ru(m)
8BB/	.	.	.	.	.	8G\	Cor-
8GG/J	.	.	.	.	.	16A\LL	-pus
.	.	.	.	.	.	16B\JJ	.
4C/	.	.	.	.	.	8c\	na-
.	.	.	.	.	.	8C/	-tu(m)
8r	.	.	.	.	.	8c\	de
8C/	.	.	.	.	.	8G\	Ma-
=11	=11	=11	=11	=11	=11	=11	=11
8C\L	.	2r	.	2r	.	8E\	-ri-
8D\	.	.	.	.	.	8C/	-a
8E\	.	.	.	.	.	8.G\	vir-
8F\J	.	.	.	.	.	.	.
.	.	.	.	.	.	16G\	-gi-
!LO:LB:g=original	!	!	!	!	!	!	!
8G\L	.	4r	.	4r	.	4GG/	-ne
16G\L	.	.	.	.	.	.	.
16A\JJ	.	.	.	.	.	.	.
8B\L	.	8r	.	8r	.	4r	.
!	!	!	!	!	!LO:DY:a	!	!
8c\J	.	8g/	.	8g/	p	.	.
!	!	!	!	!	!	!LO:LB:g=original	!
=12	=12	=12	=12	=12	=12	=12	=12
!	!	!	!	!	!	!LO:TX:a:rj:t=2	!
4G\	7 5	16f/LL	.	16f/LL	.	0r	.
.	.	16f/	.	16f/	.	.	.
.	.	16d/	.	16d/	.	.	.
.	.	16d/JJ	.	16d/JJ	.	.	.
4r	.	16f/LL	.	16f/LL	.	.	.
.	.	16f/	.	16f/	.	.	.
.	.	16d/	.	16d/	.	.	.
.	.	16d/JJ	.	16d/JJ	.	.	.
!LO:TX:t=P:problem= mixed beam	!	!	!	!	!	!	!
8G\L	.	16f/LL	.	16f/LL	.	.	.
.	.	16e/	.	16e/	.	.	.
8B\	.	16f/	.	16f/	.	.	.
.	.	16d/JJ	.	16d/JJ	.	.	.
!	!	!LO:TX:t=P:problem= mixed beam	!	!LO:TX:t=P:problem= mixed beam	!	!	!
8c\	.	8e/L	.	8e/L	.	.	.
8C/J	.	8gg\J	.	8ee\J	.	.	.
=13	=13	=13	=13	=13	=13	=13	=13
4G\	7 5	16ff\LL	.	16dd\LL	.	.	.
.	.	16ff\	.	16dd\	.	.	.
.	.	16dd\	.	16b\	.	.	.
.	.	16dd\JJ	.	16b\JJ	.	.	.
4r	.	16ff\LL	.	16dd\LL	.	.	.
.	.	16ff\	.	16dd\	.	.	.
.	.	16dd\	.	16b\	.	.	.
.	.	16dd\JJ	.	16b\JJ	.	.	.
!	!	!LO:LB:g=original	!	!	!	!	!
8G\L	.	16ff\LL	.	16dd\LL	.	.	.
.	.	16ee\	.	16cc\	.	.	.
8B\J	.	16ff\	.	16dd\	.	.	.
.	.	16dd\JJ	.	16b\JJ	.	.	.
8c\L	.	8ee\L	.	8cc/L	.	.	.
8F\J	.	16dd\L	.	8a/J	.	.	.
.	.	16cc\JJ	.	.	.	.	.
!	!	!	!	!LO:LB:g=original	!	!	!
=14	=14	=14	=14	=14	=14	=14	=14
!LO:TX:t=P:problem= mixed beam	!	!	!	!	!	!	!
8G\L	.	8b\L	.	8a/L	.	2r	.
8F\	.	8cc\	.	8a/	.	.	.
8G\	4	8g\	.	8g/	.	.	.
8GG/J	3	8b\J	.	8g/J	.	.	.
4C/	.	4cc\	.	4e/	.	4r	.
8C/L	.	4r	.	4r	.	16C/LL	A-
.	.	.	.	.	.	16D/JJ	.
8C/J	.	.	.	.	.	16E\LL	-ve
.	.	.	.	.	.	16F\JJ	.
=15	=15	=15	=15	=15	=15	=15	=15
!	!	!LO:TX:a:rj:t=1	!	!	!	!	!
8BB/L	6	1r	.	1r	.	8G\	ve-
8AA/	.	.	.	.	.	8G\	-ru(m)
8BB/	.	.	.	.	.	8G\	Cor-
8GG/J	.	.	.	.	.	16A\LL	-pus
.	.	.	.	.	.	16B\JJ	.
4C/	.	.	.	.	.	8c\	na-
.	.	.	.	.	.	8C/	-tu(m)
8r	.	.	.	.	.	8c\	de
8C/	.	.	.	.	.	8G\	Ma-
=16	=16	=16	=16	=16	=16	=16	=16
8C/L	.	2r	.	2r	.	8E\	-ri-
8D/	.	.	.	.	.	8C/	-a
8E/	.	.	.	.	.	8.G\	vir-
8F/J	.	.	.	.	.	.	.
.	.	.	.	.	.	16GG/	-gi-
4G\	.	4r	.	4r	.	4GG/	-ne
8C/L	.	8gg\L	.	8gg\L	.	8E\	ve-
8C/J	.	8gg\J	.	8gg\J	.	8E\	-re
!LO:LB:g=original	!	!	!	!	!	!LO:LB:g=original	!
=17	=17	=17	=17	=17	=17	=17	=17
4F\	.	(16aa\LL	.	(16aa\LL	.	8F\	paS-
.	.	16gg\	.	16gg\	.	.	.
.	.	16aa\)	.	16aa\)	.	8F\	-su(m)
!	!	!	!	!LO:TX:a:rj:t=|:problem	!	!	!
.	.	16ff\JJ	.	16ff\JJ	.	.	.
8r	.	(16aa\LL	.	(16aa\LL	.	8.F\	im-
.	.	16gg\	.	16gg\	.	.	.
8F\	.	16aa\)	.	16aa\)	.	.	.
!	!	!	!	!LO:TX:a:rj:t=|:problem	!	!	!
.	.	16ff\JJ	.	16ff\JJ	.	16F\	-mo-
!	!	!LO:TX:t=P:problem= mixed beam	!	!	!	!	!
4C/	.	8gg\L	.	8gg\L	.	8E\	-la-
.	.	8ee\	.	8ee\J	.	8C/	-tu(m)
8r	.	8e/	.	8e/L	.	8G\	ve-
8C/	.	8e/J	.	8e/J	.	8G\	-re
=18	=18	=18	=18	=18	=18	=18	=18
4F\	.	(16f/LL	.	(16f/LL	.	8A\	paS-
.	.	16e/	.	16e/	.	.	.
.	.	16f/)	.	16f/)	.	8A\	-sum
!	!	!	!	!LO:TX:a:rj:t=|:problem	!	!	!
.	.	16d/JJ	.	16d/JJ	.	.	.
8r	.	(16f/LL	.	(16f/LL	.	16A\LL	im-
.	.	16e/	.	16e/	.	16c\JJ	.
8F\	.	16f/)	.	16f/)	.	16A\LL	-mo-
!	!	!	!	!LO:TX:a:rj:t=|:problem	!	!	!
.	.	16d/JJ	.	16d/JJ	.	16F\JJ	.
4C/	.	16e/LL	.	16e/LL	.	8G\	-la-
.	.	16c/	.	16c/	.	.	.
.	.	16e/	.	16e/	.	8E\	-tu(m)
.	.	16g/JJ	.	16g/JJ	.	.	.
4r	.	8cc\L	.	8cc\L	.	8r	.
.	.	8a\J	.	8a\J	.	8F\	in
!	!	!LO:LB:g=original	!	!	!	!	!
=19	=19	=19	=19	=19	=19	=19	=19
0r	.	16b\LL	.	16b\LL	.	4F\	Cru-
.	.	16dd\	.	16dd\	.	.	.
.	.	16b\	.	16b\	.	.	.
.	.	16g\JJ	.	16g\JJ	.	.	.
!	!	!	!	!LO:LB:g=original	!	!	!
.	.	16b\LL	.	16b\LL	.	8F\	-ce
.	.	16dd\	.	16dd\	.	.	.
.	.	16b\	.	16b\	.	8F\	in
.	.	16g\JJ	.	16g\JJ	.	.	.
.	.	16f/LL	.	16f/LL	.	4B\	Cru-
.	.	16f/	.	16f/	.	.	.
.	.	16d/	.	16d/	.	.	.
.	.	16d/JJ	.	16d/JJ	.	.	.
.	.	16f/LL	.	16f/LL	.	8B\	-ce
.	.	16f/	.	16f/	.	.	.
.	.	16d/	.	16d/	.	8d\	in
.	.	16d/JJ	.	16d/JJ	.	.	.
!	!	!	!	!	!	!LO:LB:g=original	!
=20	=20	=20	=20	=20	=20	=20	=20
.	.	16B/LL	.	16B/LL	.	4d\	Cru-
.	.	16B/	.	16B/	.	.	.
.	.	16G/	.	16G/	.	.	.
.	.	16G/JJ	.	16G/JJ	.	.	.
!	!	!LO:SIC:s=16B	!	!	!	!	!
.	.	16G/LL	.	16B/LL	.	8B\	-ce
!	!	!LO:SIC:s=16B	!	!	!	!	!
.	.	16G/	.	16B/	.	.	.
.	.	16f/	.	16f/	.	8G\	pro
.	.	16b/JJ	.	16b/JJ	.	.	.
!	!	!	!	!LO:TX:t=P:problem= mixed beam	!	!	!
.	.	16cc/LL	.	16cc\LL	.	8.F\	ho-
.	.	16c/	.	16c/	.	.	.
.	.	16e/	.	16e/	.	.	.
.	.	16g/JJ	.	16g/JJ	.	16E\	-mi-
!	!	!LO:TX:t=P:problem= mixed beam	!	!LO:TX:t=P:problem= mixed beam	!	!	!
.	.	8cc\L	.	8cc\L	.	8E\	-ne
.	.	8c/J	.	8c/J	.	8c\	in
=21	=21	=21	=21	=21	=21	=21	=21
1r	.	16d/LL	.	(16d/LL	.	4F#X\	Cru-
.	.	16f#X/	.	16f#X/	.	.	.
.	.	16a/	.	16a/	.	.	.
.	.	16cc/JJ	.	16cc/JJ)	.	.	.
.	.	16d/LL	.	(16d/LL	.	8F#\	-ce
.	.	16f#X/	.	16f#X/	.	.	.
*	*	*	*	*	*	*	*ij
.	.	16a/	.	16a/	.	8A\	in
.	.	16cc/JJ	.	16cc/JJ)	.	.	.
.	.	16d/LL	.	16d/LL	.	4A\	Cru-
.	.	16d/	.	16d/	.	.	.
.	.	16d/	.	16d/	.	.	.
.	.	16f#X/JJ	.	16f#X/JJ	.	.	.
.	.	16d/LL	.	16d/LL	.	8B\	-ce
*	*	*	*	*	*	*	*Xij
.	.	16d/	.	16d/	.	.	.
.	.	16d/	.	16d/	.	8c\	pro
.	.	16f#X/JJ	.	16f#X/JJ	.	.	.
!	!	!LO:LB:g=original	!	!	!	!	!
=22	=22	=22	=22	=22	=22	=22	=22
4r	.	4g/	.	4g/	.	8.B\	ho-
.	.	.	.	.	.	16B\	-mi-
8r	.	4r	.	4r	.	8B\	-ne
8C/	.	.	.	.	.	8c\	in
!LO:TX:t=P:problem= mixed beam	!	!	!	!	!	!	!
8F\L	.	2r	.	2r	.	8A\	Cru-
8D\	.	.	.	.	.	16F\	-ce
.	.	.	.	.	.	16A\	pro
8G\	.	.	.	.	.	8.G\	ho-
8GG/J	.	.	.	.	.	.	.
.	.	.	.	.	.	16GG/	-mi-
!	!	!	!	!LO:LB:g=original	!	!LO:LB:g=original	!
=23	=23	=23	=23	=23	=23	=23	=23
4C/	.	16cc/LL	.	16cc/LL	.	4C/	-ne
.	.	16g/	.	16g/	.	.	.
.	.	16e/	.	16e/	.	.	.
.	.	16c/JJ	.	16c/JJ	.	.	.
4r	.	16cc/LL	.	16cc/LL	.	4r	.
.	.	16g/	.	16g/	.	.	.
.	.	16e/	.	16e/	.	.	.
.	.	16c/JJ	.	16c/JJ	.	.	.
8r	.	16cc/LL	.	16cc/LL	.	4r	.
.	.	16g/	.	16g/	.	.	.
8r	.	16e/	.	16e/	.	.	.
.	.	16c/JJ	.	16c/JJ	.	.	.
8C/L	.	8gg\L	.	8ee\L	.	8E\	ve-
8C/J	.	8gg\J	.	8ee\J	.	8E\	-re
=24	=24	=24	=24	=24	=24	=24	=24
4F\	.	16aa\LL	.	(16ff\LL	.	8F\	paS-
.	.	(16gg\	.	16ee\	.	.	.
.	.	16aa\	.	16ff\)	.	8F\	-su(m)
.	.	16ff\JJ)	.	16dd\JJ	.	.	.
8r	.	(16aa\LL	.	(16ff\LL	.	8.F\	im-
.	.	16gg\	.	16ee\	.	.	.
8F\	.	16aa\)	.	16ff\)	.	.	.
!	!	!	!	!LO:TX:a:rj:t=|:problem	!	!	!
.	.	16ff\JJ	.	16dd\JJ	.	16F\	-mo-
4C/	.	8gg\L	.	8ee\L	.	8E\	-la-
.	.	8ee\J	.	8cc\J	.	8C/	-tu(m)
8r	.	8e/L	.	8e/L	.	8G\	ve-
8C/	.	8e/J	.	8e/J	.	8G\	-re
=25	=25	=25	=25	=25	=25	=25	=25
4F\	.	(16f/LL	.	(16f/LL	.	8A\	paS-
.	.	16e/	.	16e/	.	.	.
.	.	16f/)	.	16f/)	.	8A\	-su(m)
!	!	!	!	!LO:TX:a:rj:t=|:problem	!	!	!
.	.	16d/JJ	.	16d/JJ	.	.	.
8r	.	(16f/LL	.	(16f/LL	.	16A\LL	im-
.	.	16e/	.	16e/	.	16c\JJ	.
8F\L	.	16f/)	.	16f/)	.	16A\LL	-mo-
!	!	!	!	!LO:TX:a:rj:t=|:problem	!	!	!
.	.	16d/JJ	.	16d/JJ	.	16F\JJ	.
8C\	.	16e/LL	.	16e/LL	.	8G\	-la-
.	.	16c/	.	16c/	.	.	.
8C\J	.	16e/	.	16e/	.	8E\	-tu(m)
.	.	16g/JJ	.	16g/JJ	.	.	.
4r	.	8cc\L	.	8cc\L	.	8r	.
.	.	8a\J	.	8a\J	.	8F\	in
!LO:LB:g=original	!	!LO:LB:g=original	!	!	!	!LO:LB:g=original	!
=26	=26	=26	=26	=26	=26	=26	=26
0r	.	16b\LL	.	16b\LL	.	4F\	Cru-
.	.	16dd\	.	16dd\	.	.	.
.	.	16b\	.	16b\	.	.	.
.	.	16g\JJ	.	16g\JJ	.	.	.
.	.	16b\LL	.	16b\LL	.	8F\	-ce
.	.	16dd\	.	16dd\	.	.	.
.	.	16b\	.	16b\	.	8F\	in
.	.	16g\JJ	.	16g\JJ	.	.	.
!	!	!	!	!LO:LB:g=original	!	!	!
.	.	16f/LL	.	16f/LL	.	4B\	Cru-
.	.	16f/	.	16f/	.	.	.
.	.	16d/	.	16d/	.	.	.
.	.	16d/JJ	.	16d/JJ	.	.	.
.	.	16f/LL	.	16f/LL	.	8B\	-ce
.	.	16f/	.	16f/	.	.	.
.	.	16d/	.	16d/	.	8d\	in
.	.	16d/JJ	.	16d/JJ	.	.	.
=27	=27	=27	=27	=27	=27	=27	=27
.	.	16B/LL	.	16B/LL	.	4d\	Cru-
.	.	16B/	.	16B/	.	.	.
.	.	16G/	.	16G/	.	.	.
.	.	16G/JJ	.	16G/JJ	.	.	.
.	.	16B/LL	.	16B/LL	.	8B\	-ce
.	.	16B/	.	16B/	.	.	.
.	.	16f/	.	16f/	.	8G\	pro
.	.	16f/JJ	.	16f/JJ	.	.	.
!	!	!LO:TX:t=P:problem= mixed beam	!	!	!	!	!
.	.	16cc\LL	.	16cc/LL	.	8.F\	ho-
.	.	16c/	.	16c/	.	.	.
.	.	16e/	.	16e/	.	.	.
.	.	16g/JJ	.	16g/JJ	.	16E\	-mi-
!	!	!LO:TX:t=P:problem= mixed beam	!	!LO:TX:t=P:problem= mixed beam	!	!	!
.	.	8cc\L	.	8cc\L	.	8E\	-ne
.	.	8e/J	.	8e/J	.	8c\	in
=28	=28	=28	=28	=28	=28	=28	=28
1r	.	16d/LL	.	16d/LL	.	4F#X\	Cru-
.	.	16f#X/	.	16f#X/	.	.	.
.	.	16a/	.	16a/	.	.	.
.	.	16cc/JJ	.	16cc/JJ	.	.	.
.	.	16d/LL	.	16d/LL	.	8F#\	-ce
.	.	16f#X/	.	16f#X/	.	.	.
*	*	*	*	*	*	*	*ij
.	.	16a/	.	16a/	.	8A\	in
.	.	16cc/JJ	.	16cc/JJ	.	.	.
.	.	16d/LL	.	16d/LL	.	4A\	Cru-
.	.	16d/	.	16d/	.	.	.
.	.	16d/	.	16d/	.	.	.
.	.	16f#X/JJ	.	16f#X/JJ	.	.	.
.	.	16d/LL	.	16d/LL	.	8B\	-ce
*	*	*	*	*	*	*	*Xij
.	.	16d/	.	16d/	.	.	.
.	.	16d/	.	16d/	.	8c\	pro
.	.	16f#X/JJ	.	16f#X/JJ	.	.	.
!	!	!LO:PB:g=original	!	!	!	!	!
=29	=29	=29	=29	=29	=29	=29	=29
4r	.	4g/	.	4g/	.	8.B\	ho-
.	.	.	.	.	.	16B\	-mi-
!	!	!	!	!	!	!LO:LB:g=original	!
8r	.	4r	.	4r	.	8B\	-ne
8C/	.	.	.	.	.	8c\	in
!LO:TX:t=P:problem= mixed beam	!	!	!	!	!	!	!
8F\L	.	2r	.	2r	.	8A\	Cru-
8D\	.	.	.	.	.	16F\	-ce
.	.	.	.	.	.	16A\	pro
8G\	.	.	.	.	.	8.G\	ho-
8GG/J	.	.	.	.	.	.	.
.	.	.	.	.	.	16GG/	-mi-
!	!	!	!	!LO:LB:g=original	!	!	!
=30	=30	=30	=30	=30	=30	=30	=30
!	!	!	!LO:DY:a	!	!	!	!
4C/	.	8c/L	f	8c/L	.	4C/	-ne
.	.	16e/L	.	16e/L	.	.	.
.	.	16f/JJ	.	16f/JJ	.	.	.
4r	.	8g/L	.	8g/L	.	4r	.
.	.	16a/L	.	16a/L	.	.	.
.	.	16b/JJ	.	16b/JJ	.	.	.
8C/L	.	8cc\L	.	8cc/L	.	2r	.
8D/	.	16b\L	.	16b/L	.	.	.
.	.	16a\JJ	.	16a/JJ	.	.	.
8E/	.	8g/L	.	8g/L	.	.	.
8D/J	.	16a/L	.	16a/L	.	.	.
.	.	16b/JJ	.	16b/JJ	.	.	.
=31	=31	=31	=31	=31	=31	=31	=31
8C/L	.	8cc/L	.	8cc/L	.	00r	.
8D/	.	16b/L	.	16b/L	.	.	.
.	.	16a/JJ	.	16a/JJ	.	.	.
8E/	.	8g/L	.	8g/L	.	.	.
8C/J	.	8e/J	.	8e/J	.	.	.
8GG/L	7 5	16f/LL	.	16f/LL	.	.	.
.	.	16a/	.	16a/	.	.	.
8BB/	.	16f/	.	16f/	.	.	.
.	.	16d/JJ	.	16d/JJ	.	.	.
8C/	.	16e/LL	.	16e/LL	.	.	.
.	.	16g/	.	16g/	.	.	.
8C/J	.	16e/	.	16e/	.	.	.
.	.	16c/JJ	.	16c/JJ	.	.	.
=32	=32	=32	=32	=32	=32	=32	=32
4GG/	.	8d/L	.	8d/L	.	.	.
.	.	16B/L	.	16B/L	.	.	.
.	.	16A/JJ	.	16A/JJ	.	.	.
4r	.	4G/	.	4G/	.	.	.
4C/	.	8cc\L	.	8cc\L	.	.	.
.	.	16ee\L	.	16ee\L	.	.	.
.	.	16ff\JJ	.	16ff\JJ	.	.	.
4r	.	8gg\L	.	8gg\L	.	.	.
.	.	16aa\L	.	16ee\L	.	.	.
.	.	16bb\JJ	.	16dd\JJ	.	.	.
!	!	!LO:LB:g=original	!	!	!	!	!
=33	=33	=33	=33	=33	=33	=33	=33
8C/L	.	8ccc\L	.	4ee\	.	.	.
8D/	.	16bb\L	.	.	.	.	.
.	.	16aa\JJ	.	.	.	.	.
8E/	.	8gg\L	.	4r	.	.	.
8D/J	.	16aa\L	.	.	.	.	.
.	.	16bb\JJ	.	.	.	.	.
8C/L	.	8ccc\L	.	4ee\	.	.	.
8D/	.	16bb\L	.	.	.	.	.
.	.	16aa\JJ	.	.	.	.	.
8E/	.	8gg\L	.	8r	.	.	.
*	*	*	*	*custos:dd	*	*	*
8C/J	.	8ee\J	.	8ee\	.	.	.
!	!	!	!	!LO:PB:g=original	!	!	!
=34	=34	=34	=34	=34	=34	=34	=34
8G\L	7 5	16ff\LL	.	16dd\LL	.	.	.
.	.	16aa\	.	16ff\	.	.	.
8r	.	16ff\	.	16dd\	.	.	.
.	.	16dd\JJ	.	16b\JJ	.	.	.
8C\J	.	16ee\LL	.	16cc\LL	.	.	.
.	.	16gg\	.	16ee\	.	.	.
!LO:TX:b:rj:t=Verte Cito	!	!	!	!	!	!	!
8r	.	16ee\	.	16cc\	.	.	.
.	.	16cc\JJ	.	16a\JJ	.	.	.
!LO:PB:g=original	!	!	!	!	!	!	!
8G\L	.	4dd\	.	4b/	.	.	.
8A\	.	.	.	.	.	.	.
8B\	.	8r	.	8r	.	.	.
8c\J	.	8g/	.	8g/	.	.	.
=35	=35	=35	=35	=35	=35	=35	=35
8G\L	7 5	16f/LL	.	16f/LL	.	00r	.
.	.	16a/	.	16a/	.	.	.
8r	.	16f/	.	16f/	.	.	.
.	.	16d/JJ	.	16d/JJ	.	.	.
8C\J	.	16e/LL	.	16e/LL	.	.	.
.	.	16g/	.	16g/	.	.	.
8r	.	16e/	.	16e/	.	.	.
.	.	16c/JJ	.	16c/JJ	.	.	.
4G\	.	8d/L	.	8d/L	.	.	.
.	.	16B/L	.	16B/L	.	.	.
.	.	16A/JJ	.	16A/JJ	.	.	.
4r	.	8G/L	.	8G/L	.	.	.
.	.	8e/J	.	8e/J	.	.	.
=36	=36	=36	=36	=36	=36	=36	=36
2r	.	8f/L	.	8d/L	.	.	.
.	.	8f/	.	8d/	.	.	.
.	.	8f/	.	8d/	.	.	.
*	*	*custos:f	*	*	*	*	*
.	.	8f/J	.	8d/J	.	.	.
!	!	!LO:LB:g=original	!	!	!	!	!
4r	.	16f/LL	.	16d/LL	.	.	.
.	.	16e/	.	16c/	.	.	.
.	.	16f/	.	16d/	.	.	.
.	.	16d/JJ	.	16B/JJ	.	.	.
!	!	!LO:TX:t=P:problem= mixed beam	!	!LO:TX:t=P:problem= mixed beam	!	!	!
8r	.	8e/L	.	8c/L	.	.	.
8C/	.	8gg\J	.	8ee\J	.	.	.
=37	=37	=37	=37	=37	=37	=37	=37
4G\	7 5	8ff\L	.	8dd\L	.	.	.
.	.	8ff\	.	8dd\	.	.	.
4r	.	8ff\	.	8dd\	.	.	.
.	.	8ff\J	.	8dd\J	.	.	.
8G\L	.	16ff\LL	.	16dd\LL	.	.	.
.	.	16ee\	.	16cc\	.	.	.
8B\	.	16ff\	.	16dd\	.	.	.
.	.	16dd\JJ	.	16b\JJ	.	.	.
!	!	!	!	!LO:LB:g=original	!	!	!
8c\	.	8ee\L	.	8cc\L	.	.	.
8F\J	.	16dd\L	.	8a\J	.	.	.
.	.	16cc\JJ	.	.	.	.	.
=38	=38	=38	=38	=38	=38	=38	=38
!LO:TX:t=P:problem= mixed beam	!	!	!	!	!	!	!
8G\L	4	8b\L	.	8g/L	.	.	.
8F\	.	8cc\	.	8a/	.	.	.
8G\	3	8g\	.	8g/	.	.	.
8GG/J	.	8b\J	.	8f/J	.	.	.
8C/L	.	4cc\	.	4e/	.	.	.
16E/L	.	.	.	.	.	.	.
16D/JJ	.	.	.	.	.	.	.
8C/L	.	8r	.	8r	.	.	.
8C/J	.	8e/	.	8e/	.	.	.
=39	=39	=39	=39	=39	=39	=39	=39
4GG/	7 5	16f/LL	.	16d/LL	.	0r;<	.
.	.	16f/	.	16d/	.	.	.
.	.	16d/	.	16B/	.	.	.
.	.	16d/JJ	.	16B/JJ	.	.	.
4r	.	16f/LL	.	16d/LL	.	.	.
.	.	16f/	.	16d/	.	.	.
.	.	16d/	.	16B/	.	.	.
.	.	16d/JJ	.	16B/JJ	.	.	.
8GG/L	.	16f/LL	.	16d/LL	.	.	.
.	.	16e/	.	16c/	.	.	.
8BB/	.	16f/	.	16d/	.	.	.
.	.	16d/JJ	.	16B/JJ	.	.	.
!	!	!LO:TX:t=P:problem= mixed beam	!	!LO:TX:t=P:problem= mixed beam	!	!	!
8C/	.	8e/L	.	8c/L	.	.	.
8C/J	.	8gg\J	.	8ee\J	.	.	.
!	!	!LO:LB:g=original	!	!	!	!	!
=40	=40	=40	=40	=40	=40	=40	=40
4G\	7 5	16ff\LL	.	16dd\LL	.	.	.
.	.	16ff\	.	16dd\	.	.	.
.	.	16dd\	.	16b\	.	.	.
.	.	16dd\JJ	.	16b\JJ	.	.	.
4r	.	16ff\LL	.	16dd\LL	.	.	.
.	.	16ff\	.	16dd\	.	.	.
.	.	16dd\	.	16b\	.	.	.
.	.	16dd\JJ	.	16b\JJ	.	.	.
!LO:LB:g=original	!	!	!	!	!	!	!
8G\L	.	16ff\LL	.	16dd\LL	.	.	.
.	.	16ee\	.	16cc\	.	.	.
8B\	.	16ff\	.	16dd\	.	.	.
.	.	16dd\JJ	.	16b\JJ	.	.	.
8c\	.	8ee\L	.	8cc\L	.	.	.
8F\J	.	16dd\L	.	8a\J	.	.	.
.	.	16cc\JJ	.	.	.	.	.
=41	=41	=41	=41	=41||	=41||	=41||	=41||
!LO:TX:t=P:problem= mixed beam	!	!	!	!	!	!	!
8G\L	.	8b\L	.	8g/L	.	2r	.
8F\	.	8cc\	.	8a/	.	.	.
8G\	.	8g\	.	8g/	.	.	.
8GG/J	.	8b\J	.	8g/J	.	.	.
!LO:TX:a:rj:t=Finis	!	!LO:TX:a:rj:t=Finis	!	!LO:TX:a:rj:t=Finis	!	!	!
4C;</	.	4cc;<\	.	4e;</	.	4r	.
*>B	*	*	*	*	*	*	*
!LO:TX:t=P:problem= mixed beam	!	!	!	!	!	!	!
8A\L	.	4ryy	.	4r	.	8A\	Cu-
8AA/J	.	.	.	.	.	8A\	-jus
!	!	!	!	!LO:LB:g=original	!	!	!
=42	=42	=42||	=42||	=42	=42	=42	=42
4A\	.	0r	.	0r	.	8A\	la-
.	.	.	.	.	.	8A\	-tus
8D\L	.	.	.	.	.	8B\	per-
8E\J	#	.	.	.	.	8G#X\	-fo-
4AA/	.	.	.	.	.	8A\	-ra-
.	.	.	.	.	.	8AA/	-tu(m)
4r	.	.	.	.	.	8A\	un-
.	.	.	.	.	.	8Gn\	-da
!	!	!	!	!	!	!LO:LB:g=original	!
=43	=43	=43	=43	=43	=43	=43	=43
4D/	-	.	.	.	.	8.F\L	flu-
.	.	.	.	.	.	16E\Jk	.
4r	.	.	.	.	.	8D/L	-xit
.	.	.	.	.	.	8C/J	.
4E\	#	.	.	.	.	8.E\	san-
.	.	.	.	.	.	16EE/	-gui-
4r	.	.	.	.	.	4EE/	-ne
=44	=44	=44	=44	=44	=44	=44	=44
4A\	.	8a\L	.	8a/L	.	0r	.
.	.	16cc\L	.	16cc/L	.	.	.
.	.	16dd\JJ	.	16dd/JJ	.	.	.
4r	.	8ee\L	.	8ee\L	.	.	.
.	.	16ff#X\L	.	16ff#X\L	.	.	.
.	.	16gg#X\JJ	.	16gg#X\JJ	.	.	.
4A\	.	8aa\L	.	8aa\L	.	.	.
.	.	16ggn\L	.	16ggn\L	.	.	.
.	.	16ffn\JJ	.	16ffn\JJ	.	.	.
4r	.	8ee\L	.	8ee\L	.	.	.
.	.	16ff#X\L	.	16ff#X\L	.	.	.
.	.	16gg#X\JJ	.	16gg#X\JJ	.	.	.
=45	=45	=45	=45	=45	=45	=45	=45
8A\L	.	8aa\L	.	8aa\L	.	.	.
8B\	.	16ggn\L	.	16ggn\L	.	.	.
.	.	16ffn\JJ	.	16ffn\JJ	.	.	.
8c\	.	8ee\L	.	8ee\L	.	.	.
8B\J	.	8dd\J	.	8dd\J	.	.	.
!	!	!LO:LB:g=original	!	!	!	!	!
4A\	.	8cc\L	.	8cc\L	.	.	.
.	.	16b\L	.	16b\L	.	.	.
.	.	16cc\JJ	.	16cc\JJ	.	.	.
8r	.	8a/L	.	8a/L	.	.	.
8E\	#	8ee/J	.	8b/J	.	.	.
=46	=46	=46	=46	=46	=46	=46	=46
!LO:TX:t=P:problem= mixed beam	!	!	!	!	!	!	!
8A\L	.	8cc\L	.	8a/L	.	2r	.
8D\	.	16b\L	.	8f/J	.	.	.
.	.	16a\JJ	.	.	.	.	.
8E\	.	8e/L	.	8e/L	.	.	.
8EE/J	.	8g#X/J	.	8d/J	.	.	.
4AA/	.	4a/	.	4c/	.	4r	.
!LO:LB:g=original	!	!	!	!	!	!	!
!LO:TX:t=P:problem= mixed beam	!	!	!	!	!	!	!
8A\L	.	4r	.	4r	.	8A\	Cu-
8AA/J	.	.	.	.	.	8A\	-jus
=47	=47	=47	=47	=47	=47	=47	=47
!LO:TX:t=P:problem= mixed beam	!	!	!	!	!	!	!
8A\L	.	1r	.	0r	.	8A\	la-
8AA/J	.	.	.	.	.	8A\	-tus
8D\L	.	.	.	.	.	8B\	per-
8E\J	#	.	.	.	.	8G#X\	-fo-
4AA/	.	.	.	.	.	8A\	-ra-
.	.	.	.	.	.	8AA/	-tu(m)
4r	.	.	.	.	.	8A\	un-
.	.	.	.	.	.	8Gn\	-da
=48	=48	=48	=48	=48	=48	=48	=48
4D/	-	1r	.	.	.	8F\L	flu-
.	.	.	.	.	.	8E\J	.
4r	.	.	.	.	.	8D/L	-xit
.	.	.	.	.	.	8C/J	.
4E\	#	.	.	.	.	8.E\	san-
.	.	.	.	.	.	16EE/	-gui-
4r	.	.	.	.	.	4EE/	-ne
!	!	!	!	!	!	!LO:LB:g=original	!
=49	=49	=49	=49	=49	=49	=49	=49
!	!	!LO:TX:t=P:problem= mixed beam	!	!LO:TX:t=P:problem= mixed beam	!	!	!
00r	.	16ee\LL	.	16ee\LL	.	8.E\	es-
.	.	16e/	.	16e/	.	.	.
.	.	16g#X/	.	16g#X/	.	.	.
.	.	16b/JJ	.	16b/JJ	.	16E\	-to
!	!	!LO:TX:t=P:problem= mixed beam	!	!LO:TX:t=P:problem= mixed beam	!	!	!
.	.	8ee\L	.	8ee\L	.	8E\	no-
.	.	8e/J	.	8e/J	.	8E\	-bis
!	!	!	!	!LO:LB:g=original	!	!	!
.	.	8cc\L	.	8cc\L	.	8.E\	prae-
.	.	16b\L	.	16b\L	.	.	.
.	.	16a\JJ	.	16a\JJ	.	16E\	-gus-
.	.	8b/L	.	8b/L	.	8E\	-ta-
.	.	8e/J	.	8g#X/J	.	8E\	-tum
=50	=50	=50	=50	=50	=50	=50	=50
.	.	8.ee\L	.	8.ee\L	.	8.G#X\	mor-
.	.	16dd\Jk	.	16dd\Jk	.	16A\	-tis
.	.	16cc\LL	.	16cc\LL	.	8F\	in
.	.	16b\	.	16b\	.	.	.
.	.	16cc\	.	16cc\	.	8D/	e-
.	.	16a\JJ	.	16a\JJ	.	.	.
.	.	8.b/L	.	8.b/L	.	8.E\	-xa-
.	.	16b/Jk	.	16b/Jk	.	16EE/	-mi-
.	.	4a/	.	4a/	.	4AA/	-ne
!	!	!LO:LB:g=original	!	!	!	!	!
=51	=51	=51	=51	=51	=51	=51	=51
.	.	16g#X/LL	.	16g#X/LL	.	8.B\	es-
.	.	16g#/	.	16g#/	.	.	.
.	.	16e/	.	16e/	.	.	.
.	.	16e/JJ	.	16e/JJ	.	16B\	-to
.	.	16g#/LL	.	16g#/LL	.	8B\	no-
.	.	16g#/	.	16g#/	.	.	.
.	.	16e/	.	16e/	.	8B\	-bis
.	.	16e/JJ	.	16e/JJ	.	.	.
.	.	16a/LL	.	16a/LL	.	8c\	prae-
.	.	16A/	.	16A/	.	.	.
.	.	16c/	.	16c/	.	16B\LL	-gu-
.	.	16e/JJ	.	16e/JJ	.	16A\JJ	.
!	!	!	!	!	!	!LO:LB:g=original	!
.	.	8e/L	.	8e/L	.	8B\	-sta-
.	.	8e/J	.	8e/J	.	8E\	-tu(m)
=52	=52	=52	=52	=52	=52	=52	=52
!LO:TX:a:rj:t=Da Capo ad finem	!	!	!	!	!	!	!
.	.	8.ee\L	.	8.ee\L	.	8.G#X\	mor-
.	.	16dd\Jk	.	16dd\Jk	.	16A\	-tis
!	!	!LO:TX:t=P:problem= mixed beam	!	!	!	!	!
.	.	16cc\LL	.	16cc\LL	.	8F\	in
.	.	16ee\	.	16ee\	.	.	.
.	.	16aa\	.	16aa\	.	8D/	e-
.	.	16a/JJ	.	16a\JJ	.	.	.
.	.	8.b/L	.	8.b/L	.	8.E\	-xa-
.	.	16b/Jk	.	16b/Jk	.	16E\	-mi-
!	!	!LO:TX:a:rj:t=Da Capo	!	!	!	!LO:TX:a:rj:t=Da Capo	!
.	.	4a/	.	4a/	.	4AA/	-ne
==	==	==	==	==	==	==	==
*-	*-	*-	*-	*-	*-	*-	*-
!!!system-decoration: [s1,s2,s3,s4]
!!!RDF**kern: > = above
!!!RDF**kern: < = below
!!!RDF**dynam: p = piano
!!!RDF**dynam: f = forte
!!!ENC: Kamil Watkowski
!!!END: 2020-12-06
!!!AIN: 1 empty 1 organ 2 violn
!!!ENC: Leszek Kubiak
!!!END: 2022-03-29
